logos/banner/logo-banner.svg

<?xml version="1.0" encoding="UTF-8" standalone="no"?>
<!DOCTYPE svg PUBLIC "-//W3C//DTD SVG 1.1//EN" "http://www.w3.org/Graphics/SVG/1.1/DTD/svg11.dtd">
<svg width="100%" height="100%" viewBox="0 0 312 100" version="1.1" xmlns="http://www.w3.org/2000/svg" xmlns:xlink="http://www.w3.org/1999/xlink" xml:space="preserve" xmlns:serif="http://www.serif.com/" style="fill-rule:evenodd;clip-rule:evenodd;stroke-linejoin:round;stroke-miterlimit:2;">
    <g id="Square" transform="matrix(1,0,0,1,0,-2.86102e-06)">
        <g id="g926" transform="matrix(1.51511,0,0,1.51511,-58.7694,-12.7093)">
            <path id="path880" d="M118.865,24.354L118.865,13.874L111.665,13.874L111.665,42.194L118.865,42.194L118.865,32.394L119.105,32.074L126.345,42.194L135.425,42.194L124.265,27.554L135.465,13.874L126.545,13.874L118.865,24.354Z" style="fill:rgb(203,214,255);fill-rule:nonzero;"/>
            <path id="path882" d="M134.891,32.874C134.891,39.354 140.771,42.594 146.651,42.594C152.531,42.594 158.371,39.354 158.371,32.874L158.371,23.194C158.371,16.714 152.491,13.474 146.611,13.474C140.731,13.474 134.891,16.674 134.891,23.194L134.891,32.874ZM142.051,23.194C142.051,21.114 144.291,19.994 146.531,19.994C148.851,19.994 151.211,20.994 151.211,23.194L151.211,32.874C151.211,34.914 148.931,35.954 146.651,35.954C144.371,35.954 142.051,34.954 142.051,32.874L142.051,23.194Z" style="fill:rgb(203,214,255);fill-rule:nonzero;"/>
            <path id="path884" d="M182.499,20.634L182.499,13.834L160.219,13.834L160.219,20.634L167.739,20.634L167.739,42.194L174.979,42.194L174.979,20.634L182.499,20.634Z" style="fill:rgb(203,214,255);fill-rule:nonzero;"/>
            <path id="path886" d="M185.337,42.194L204.057,42.194L204.057,35.114L192.537,35.114L192.537,13.874L185.337,13.874L185.337,42.194Z" style="fill:rgb(203,214,255);fill-rule:nonzero;"/>
            <rect id="path888" x="206.899" y="13.874" width="7.16" height="28.32" style="fill:rgb(203,214,255);fill-rule:nonzero;"/>
            <path id="path890" d="M218.54,42.194L225.7,42.194L225.7,30.874L224.78,25.394L224.98,25.354L227.46,31.034L233.86,42.194L241.1,42.194L241.1,13.874L233.98,13.874L233.98,26.714C234.02,26.714 234.74,31.594 234.78,31.594L234.58,31.634L232.18,25.954L225.34,13.874L218.54,13.874L218.54,42.194Z" style="fill:rgb(203,214,255);fill-rule:nonzero;"/>
        </g>
        <g id="g935" transform="matrix(1.24917,0,0,1.25002,-29.4239,-12.4353)">
            <path id="path892" d="M111.946,55.063L111.946,83.383L122.546,83.383C128.226,83.423 133.546,80.583 133.546,74.063L133.546,64.543C133.546,57.943 128.226,55.063 122.546,55.063L111.946,55.063ZM119.146,76.663L119.146,61.743L122.786,61.743C125.186,61.743 126.346,62.903 126.346,64.743L126.346,73.583C126.346,75.423 125.226,76.663 122.786,76.663L119.146,76.663Z" style="fill:rgb(203,214,255);fill-rule:nonzero;"/>
            <rect id="path894" x="137.414" y="55.063" width="7.16" height="28.32" style="fill:rgb(203,214,255);fill-rule:nonzero;"/>
            <path id="path896" d="M147.695,78.663C150.335,82.063 153.935,83.783 157.335,83.783C162.535,83.783 168.295,80.783 168.535,75.303C168.855,68.343 163.815,66.583 158.775,65.663C156.575,65.183 155.095,64.383 155.015,63.023C155.135,59.743 160.215,59.623 163.175,62.783L167.855,59.183C164.935,55.623 161.615,54.663 158.175,54.663C152.975,54.663 147.935,57.583 147.935,63.143C147.935,68.543 152.095,71.423 156.655,72.143C158.975,72.463 161.575,73.383 161.495,74.983C161.295,78.023 155.055,77.863 152.215,74.423L147.695,78.663Z" style="fill:rgb(203,214,255);fill-rule:nonzero;"/>
            <path id="path898" d="M186.073,74.543C184.513,78.463 178.113,77.503 178.113,74.103L178.113,64.343C178.113,60.823 184.433,60.023 186.353,63.543L192.193,61.183C189.913,56.143 185.713,54.663 182.233,54.663C176.553,54.663 170.953,57.943 170.953,64.343L170.953,74.103C170.953,80.543 176.553,83.783 182.113,83.783C185.673,83.783 189.953,82.023 192.313,77.423L186.073,74.543Z" style="fill:rgb(203,214,255);fill-rule:nonzero;"/>
            <path id="path900" d="M194.234,74.063C194.234,80.543 200.114,83.783 205.994,83.783C211.874,83.783 217.714,80.543 217.714,74.063L217.714,64.383C217.714,57.903 211.834,54.663 205.954,54.663C200.074,54.663 194.234,57.863 194.234,64.383L194.234,74.063ZM201.394,64.383C201.394,62.303 203.634,61.183 205.874,61.183C208.194,61.183 210.554,62.183 210.554,64.383L210.554,74.063C210.554,76.103 208.274,77.143 205.994,77.143C203.714,77.143 201.394,76.143 201.394,74.063L201.394,64.383Z" style="fill:rgb(203,214,255);fill-rule:nonzero;"/>
            <path id="path902" d="M236.557,83.383L245.477,83.383L237.757,73.663C241.197,72.583 243.317,69.623 243.317,64.383C243.157,57.743 238.637,55.063 232.797,55.063L221.477,55.063L221.477,83.383L228.717,83.383L228.717,74.383L229.997,74.383L236.557,83.383ZM228.717,68.223L228.717,61.743L232.917,61.743C237.437,61.743 237.437,68.223 232.917,68.223L228.717,68.223Z" style="fill:rgb(203,214,255);fill-rule:nonzero;"/>
            <path id="path904" d="M247.336,55.063L247.336,83.383L257.936,83.383C263.616,83.423 268.936,80.583 268.936,74.063L268.936,64.543C268.936,57.943 263.616,55.063 257.936,55.063L247.336,55.063ZM254.536,76.663L254.536,61.743L258.176,61.743C260.576,61.743 261.736,62.903 261.736,64.743L261.736,73.583C261.736,75.423 260.616,76.663 258.176,76.663L254.536,76.663Z" style="fill:rgb(203,214,255);fill-rule:nonzero;"/>
        </g>
    </g>
    <g id="Shadow">
    </g>
    <g id="Logo">
    </g>
    <g id="Square1" serif:id="Square">
        <path d="M100,25C100,11.202 88.798,0 75,0L25,0C11.202,0 0,11.202 0,25L0,75C0,88.798 11.202,100 25,100L75,100C88.798,100 100,88.798 100,75L100,25Z" style="fill:rgb(114,137,218);"/>
    </g>
    <g id="Shadow1" serif:id="Shadow">
        <g>
            <g id="polygon93" transform="matrix(0.82507,0,0,0.82507,37.1632,16.6)">
                <clipPath id="_clip1">
                    <rect x="-0.216" y="0" width="60.216" height="59.144"/>
                </clipPath>
                <g clip-path="url(#_clip1)">
                    <path d="M-0.601,60.216L30.1,29.9L60,0L30.926,0L-0.601,31.88L-0.601,60.216Z" style="fill-opacity:0.2;fill-rule:nonzero;"/>
                </g>
            </g>
            <g id="polygon931" serif:id="polygon93" transform="matrix(5.0521e-17,-0.82507,0.82507,5.0521e-17,36.985,90.9454)">
                <path d="M-0.601,60.216L30.1,29.9L60,0L30.926,0L-0.601,31.88L-0.601,60.216Z" style="fill-opacity:0.2;fill-rule:nonzero;"/>
            </g>
            <g transform="matrix(0.71424,0,0,1,-21.3992,9.3165)">
                <rect x="59.923" y="7.284" width="23.379" height="74.841" style="fill-opacity:0.2;"/>
            </g>
        </g>
    </g>
    <g transform="matrix(1,0,0,1,-0.556616,7.10543e-15)">
        <g id="Logo1" serif:id="Logo">
            <g>
                <g id="polygon932" serif:id="polygon93" transform="matrix(5.0521e-17,-0.82507,0.82507,5.0521e-17,33.508,86.9248)">
                    <path d="M-0.601,60.216L30.1,29.9L60,0L30.926,0L-0.601,31.88L-0.601,60.216Z" style="fill:rgb(255,241,203);fill-rule:nonzero;"/>
                </g>
                <g id="polygon933" serif:id="polygon93" transform="matrix(0.82507,0,0,0.82507,33.6861,12.5794)">
                    <path d="M-0.601,60.216L30.1,29.9L60,0L30.926,0L-0.601,31.88L-0.601,60.216Z" style="fill:rgb(255,249,232);fill-rule:nonzero;"/>
                </g>
                <g transform="matrix(0.71424,0,0,1,-24.8762,5.29591)">
                    <rect x="59.923" y="7.284" width="23.379" height="74.841" style="fill:rgb(203,214,255);"/>
                </g>
            </g>
        </g>
    </g>
</svg>

<?xml version="1.0" encoding="UTF-8" standalone="no"?>
<!-- Generator: Adobe Illustrator 19.1.0, SVG Export Plug-In . SVG Version: 6.00 Build 0)  -->

<svg
   xmlns:dc="http://purl.org/dc/elements/1.1/"
   xmlns:cc="http://creativecommons.org/ns#"
   xmlns:rdf="http://www.w3.org/1999/02/22-rdf-syntax-ns#"
   xmlns:svg="http://www.w3.org/2000/svg"
   xmlns="http://www.w3.org/2000/svg"
   xmlns:xlink="http://www.w3.org/1999/xlink"
   xmlns:sodipodi="http://sodipodi.sourceforge.net/DTD/sodipodi-0.dtd"
   xmlns:inkscape="http://www.inkscape.org/namespaces/inkscape"
   version="1.1"
   id="Layer_1"
   x="0px"
   y="0px"
   viewBox="0 0 311.65588 100"
   xml:space="preserve"
   sodipodi:docname="logo-text.svg"
   width="311.65588"
   height="100"
   inkscape:version="0.92.5 (2060ec1f9f, 2020-04-08)"
   inkscape:export-filename="C:\Users\coles\IdeaProjects\branding\logo-text.png"
   inkscape:export-xdpi="601.32471"
   inkscape:export-ydpi="601.32471"><metadata
   id="metadata102"><rdf:RDF><cc:Work
       rdf:about=""><dc:format>image/svg+xml</dc:format><dc:type
         rdf:resource="http://purl.org/dc/dcmitype/StillImage" /><dc:title></dc:title></cc:Work></rdf:RDF></metadata><defs
   id="defs100">

		<linearGradient
   gradientTransform="matrix(1,0,0,-1,0,61)"
   y2="15.3332"
   x2="44.306801"
   y1="-13.0143"
   x1="15.9594"
   gradientUnits="userSpaceOnUse"
   id="XMLID_3_">
		<stop
   id="stop57"
   style="stop-color:#0095D5"
   offset="9.677000e-02" />
		<stop
   id="stop59"
   style="stop-color:#238AD9"
   offset="0.3007" />
		<stop
   id="stop61"
   style="stop-color:#557BDE"
   offset="0.6211" />
		<stop
   id="stop63"
   style="stop-color:#7472E2"
   offset="0.8643" />
		<stop
   id="stop65"
   style="stop-color:#806EE3"
   offset="1" />
	</linearGradient>
	

		<linearGradient
   gradientTransform="matrix(1,0,0,-1,0,61)"
   y2="65.404999"
   x2="20.673401"
   y1="48.940899"
   x1="4.2091999"
   gradientUnits="userSpaceOnUse"
   id="SVGID_1_"
   xlink:href="#SVGID_2_">
		<stop
   id="stop69"
   style="stop-color:#0095D5"
   offset="0.1183" />
		<stop
   id="stop71"
   style="stop-color:#3C83DC"
   offset="0.4178" />
		<stop
   id="stop73"
   style="stop-color:#6D74E1"
   offset="0.6962" />
		<stop
   id="stop75"
   style="stop-color:#806EE3"
   offset="0.8333" />
	</linearGradient>
	

		<linearGradient
   gradientTransform="matrix(1,0,0,-1,0,61)"
   y2="61.669399"
   x2="45.731499"
   y1="5.8362002"
   x1="-10.1017"
   gradientUnits="userSpaceOnUse"
   id="SVGID_2_">
		<stop
   id="stop80"
   style="stop-color:#C757BC"
   offset="0.1075" />
		<stop
   id="stop82"
   style="stop-color:#D0609A"
   offset="0.2138" />
		<stop
   id="stop84"
   style="stop-color:#E1725C"
   offset="0.4254" />
		<stop
   id="stop86"
   style="stop-color:#EE7E2F"
   offset="0.6048" />
		<stop
   id="stop88"
   style="stop-color:#F58613"
   offset="0.743" />
		<stop
   id="stop90"
   style="stop-color:#F88909"
   offset="0.8232" />
	</linearGradient>
	
</defs><sodipodi:namedview
   pagecolor="#ffffff"
   bordercolor="#666666"
   borderopacity="1"
   objecttolerance="10"
   gridtolerance="10"
   guidetolerance="10"
   inkscape:pageopacity="0"
   inkscape:pageshadow="2"
   inkscape:window-width="1920"
   inkscape:window-height="1017"
   id="namedview98"
   showgrid="false"
   inkscape:snap-page="false"
   fit-margin-top="0"
   inkscape:zoom="2.8284272"
   inkscape:cx="167.40441"
   inkscape:cy="79.492771"
   inkscape:window-x="1072"
   inkscape:window-y="520"
   inkscape:window-maximized="1"
   inkscape:current-layer="layer3"
   fit-margin-bottom="0"
   fit-margin-right="5"
   fit-margin-left="0"
   inkscape:pagecheckerboard="false" />

<g
   inkscape:groupmode="layer"
   id="layer3"
   inkscape:label="Square"
   transform="translate(0,-2.8610229e-6)"><rect
     style="display:inline;fill:#7289da;fill-opacity:1;stroke-width:4.94430399"
     id="rect838"
     width="100"
     height="100"
     x="0"
     y="2.8610229e-06"
     ry="14.318913" /><g
     style="fill:#cbd6ff;fill-opacity:1"
     id="g926"
     transform="matrix(1.5151099,0,0,1.5151099,-58.769399,-12.709325)"><path
       d="m 118.86477,24.354019 v -10.48 h -7.2 v 28.32 h 7.2 v -9.8 l 0.24,-0.32 7.24,10.12 h 9.08 l -11.16,-14.64 11.2,-13.68 h -8.92 z"
       style="font-style:normal;font-variant:normal;font-weight:900;font-stretch:normal;font-size:40px;line-height:1.25;font-family:'Uni Sans';-inkscape-font-specification:'Uni Sans Heavy';letter-spacing:0px;word-spacing:0px;fill:#cbd6ff;fill-opacity:1;stroke:none"
       id="path880"
       inkscape:connector-curvature="0" /><path
       d="m 134.89102,32.874019 c 0,6.48 5.88,9.72 11.76,9.72 5.88,0 11.72,-3.24 11.72,-9.72 v -9.68 c 0,-6.48 -5.88,-9.72 -11.76,-9.72 -5.88,0 -11.72,3.2 -11.72,9.72 z m 7.16,-9.68 c 0,-2.08 2.24,-3.2 4.48,-3.2 2.32,0 4.68,1 4.68,3.2 v 9.68 c 0,2.04 -2.28,3.08 -4.56,3.08 -2.28,0 -4.6,-1 -4.6,-3.08 z"
       style="font-style:normal;font-variant:normal;font-weight:900;font-stretch:normal;font-size:40px;line-height:1.25;font-family:'Uni Sans';-inkscape-font-specification:'Uni Sans Heavy';letter-spacing:0px;word-spacing:0px;fill:#cbd6ff;fill-opacity:1;stroke:none"
       id="path882"
       inkscape:connector-curvature="0" /><path
       d="m 182.49914,20.634019 v -6.8 h -22.28 v 6.8 h 7.52 v 21.56 h 7.24 v -21.56 z"
       style="font-style:normal;font-variant:normal;font-weight:900;font-stretch:normal;font-size:40px;line-height:1.25;font-family:'Uni Sans';-inkscape-font-specification:'Uni Sans Heavy';letter-spacing:0px;word-spacing:0px;fill:#cbd6ff;fill-opacity:1;stroke:none"
       id="path884"
       inkscape:connector-curvature="0" /><path
       d="m 185.33664,42.194019 h 18.72 v -7.08 h -11.52 v -21.24 h -7.2 z"
       style="font-style:normal;font-variant:normal;font-weight:900;font-stretch:normal;font-size:40px;line-height:1.25;font-family:'Uni Sans';-inkscape-font-specification:'Uni Sans Heavy';letter-spacing:0px;word-spacing:0px;fill:#cbd6ff;fill-opacity:1;stroke:none"
       id="path886"
       inkscape:connector-curvature="0" /><path
       d="m 214.05914,13.874019 h -7.16 v 28.32 h 7.16 z"
       style="font-style:normal;font-variant:normal;font-weight:900;font-stretch:normal;font-size:40px;line-height:1.25;font-family:'Uni Sans';-inkscape-font-specification:'Uni Sans Heavy';letter-spacing:0px;word-spacing:0px;fill:#cbd6ff;fill-opacity:1;stroke:none"
       id="path888"
       inkscape:connector-curvature="0" /><path
       d="m 218.53977,42.194019 h 7.16 v -11.32 l -0.92,-5.48 0.2,-0.04 2.48,5.68 6.4,11.16 h 7.24 v -28.32 h -7.12 v 12.84 c 0.04,0 0.76,4.88 0.8,4.88 l -0.2,0.04 -2.4,-5.68 -6.84,-12.08 h -6.8 z"
       style="font-style:normal;font-variant:normal;font-weight:900;font-stretch:normal;font-size:40px;line-height:1.25;font-family:'Uni Sans';-inkscape-font-specification:'Uni Sans Heavy';letter-spacing:0px;word-spacing:0px;fill:#cbd6ff;fill-opacity:1;stroke:none"
       id="path890"
       inkscape:connector-curvature="0" /></g><g
     style="fill:#cbd6ff;fill-opacity:1"
     id="g935"
     transform="matrix(1.2491701,0,0,1.250015,-29.423883,-12.435288)"><path
       d="m 111.94562,55.062989 v 28.32 h 10.6 c 5.68,0.04 11,-2.8 11,-9.32 v -9.52 c 0,-6.6 -5.32,-9.48 -11,-9.48 z m 7.2,21.6 v -14.92 h 3.64 c 2.4,0 3.56,1.16 3.56,3 v 8.84 c 0,1.84 -1.12,3.08 -3.56,3.08 z"
       style="font-style:normal;font-variant:normal;font-weight:900;font-stretch:normal;font-size:40px;line-height:1.25;font-family:'Uni Sans';-inkscape-font-specification:'Uni Sans Heavy';letter-spacing:0px;word-spacing:0px;fill:#cbd6ff;fill-opacity:1;stroke:none"
       id="path892"
       inkscape:connector-curvature="0" /><path
       d="m 144.57437,55.062989 h -7.16 v 28.32 h 7.16 z"
       style="font-style:normal;font-variant:normal;font-weight:900;font-stretch:normal;font-size:40px;line-height:1.25;font-family:'Uni Sans';-inkscape-font-specification:'Uni Sans Heavy';letter-spacing:0px;word-spacing:0px;fill:#cbd6ff;fill-opacity:1;stroke:none"
       id="path894"
       inkscape:connector-curvature="0" /><path
       d="m 147.695,78.662989 c 2.64,3.4 6.24,5.12 9.64,5.12 5.2,0 10.96,-3 11.2,-8.48 0.32,-6.96 -4.72,-8.72 -9.76,-9.64 -2.2,-0.48 -3.68,-1.28 -3.76,-2.64 0.12,-3.28 5.2,-3.4 8.16,-0.24 l 4.68,-3.6 c -2.92,-3.56 -6.24,-4.52 -9.68,-4.52 -5.2,0 -10.24,2.92 -10.24,8.48 0,5.4 4.16,8.28 8.72,9 2.32,0.32 4.92,1.24 4.84,2.84 -0.2,3.04 -6.44,2.88 -9.28,-0.56 z"
       style="font-style:normal;font-variant:normal;font-weight:900;font-stretch:normal;font-size:40px;line-height:1.25;font-family:'Uni Sans';-inkscape-font-specification:'Uni Sans Heavy';letter-spacing:0px;word-spacing:0px;fill:#cbd6ff;fill-opacity:1;stroke:none"
       id="path896"
       inkscape:connector-curvature="0" /><path
       d="m 186.07312,74.542989 c -1.56,3.92 -7.96,2.96 -7.96,-0.44 v -9.76 c 0,-3.52 6.32,-4.32 8.24,-0.8 l 5.84,-2.36 c -2.28,-5.04 -6.48,-6.52 -9.96,-6.52 -5.68,0 -11.28,3.28 -11.28,9.68 v 9.76 c 0,6.44 5.6,9.68 11.16,9.68 3.56,0 7.84,-1.76 10.2,-6.36 z"
       style="font-style:normal;font-variant:normal;font-weight:900;font-stretch:normal;font-size:40px;line-height:1.25;font-family:'Uni Sans';-inkscape-font-specification:'Uni Sans Heavy';letter-spacing:0px;word-spacing:0px;fill:#cbd6ff;fill-opacity:1;stroke:none"
       id="path898"
       inkscape:connector-curvature="0" /><path
       d="m 194.23437,74.062989 c 0,6.48 5.88,9.72 11.76,9.72 5.88,0 11.72,-3.24 11.72,-9.72 v -9.68 c 0,-6.48 -5.88,-9.72 -11.76,-9.72 -5.88,0 -11.72,3.2 -11.72,9.72 z m 7.16,-9.68 c 0,-2.08 2.24,-3.2 4.48,-3.2 2.32,0 4.68,1 4.68,3.2 v 9.68 c 0,2.04 -2.28,3.08 -4.56,3.08 -2.28,0 -4.6,-1 -4.6,-3.08 z"
       style="font-style:normal;font-variant:normal;font-weight:900;font-stretch:normal;font-size:40px;line-height:1.25;font-family:'Uni Sans';-inkscape-font-specification:'Uni Sans Heavy';letter-spacing:0px;word-spacing:0px;fill:#cbd6ff;fill-opacity:1;stroke:none"
       id="path900"
       inkscape:connector-curvature="0" /><path
       d="m 236.55687,83.382989 h 8.92 l -7.72,-9.72 c 3.44,-1.08 5.56,-4.04 5.56,-9.28 -0.16,-6.64 -4.68,-9.32 -10.52,-9.32 h -11.32 v 28.32 h 7.24 v -9 h 1.28 z m -7.84,-15.16 v -6.48 h 4.2 c 4.52,0 4.52,6.48 0,6.48 z"
       style="font-style:normal;font-variant:normal;font-weight:900;font-stretch:normal;font-size:40px;line-height:1.25;font-family:'Uni Sans';-inkscape-font-specification:'Uni Sans Heavy';letter-spacing:0px;word-spacing:0px;fill:#cbd6ff;fill-opacity:1;stroke:none"
       id="path902"
       inkscape:connector-curvature="0" /><path
       d="m 247.33625,55.062989 v 28.32 h 10.6 c 5.68,0.04 11,-2.8 11,-9.32 v -9.52 c 0,-6.6 -5.32,-9.48 -11,-9.48 z m 7.2,21.6 v -14.92 h 3.64 c 2.4,0 3.56,1.16 3.56,3 v 8.84 c 0,1.84 -1.12,3.08 -3.56,3.08 z"
       style="font-style:normal;font-variant:normal;font-weight:900;font-stretch:normal;font-size:40px;line-height:1.25;font-family:'Uni Sans';-inkscape-font-specification:'Uni Sans Heavy';letter-spacing:0px;word-spacing:0px;fill:#cbd6ff;fill-opacity:1;stroke:none"
       id="path904"
       inkscape:connector-curvature="0" /></g></g><g
   inkscape:groupmode="layer"
   id="layer1"
   inkscape:label="Shadow"
   style="display:inline"
   transform="translate(0,-2.8610229e-6)"><g
     id="g4665"
     transform="translate(-2,2)"><polygon
       points="30.1,29.9 60,60 0,60 "
       style="fill:#000000;fill-opacity:0.20392157"
       id="polygon4649"
       transform="translate(26,22)" /><polygon
       id="polygon4653"
       points="0,60 30.1,29.9 60,0 30.1,0 0,31.7 "
       style="fill:#000000;fill-opacity:0.20392157"
       transform="translate(26,22)" /></g></g><g
   inkscape:groupmode="layer"
   id="layer2"
   inkscape:label="Logo"
   style="display:inline"
   transform="translate(0,-2.8610229e-6)"><polygon
     points="0,60 30.1,29.9 60,60 "
     style="fill:#cbd6ff;fill-opacity:1"
     id="XMLID_2_"
     transform="translate(20,20)" /><polygon
     id="polygon78"
     points="0,0 30.1,0 0,32.5 "
     style="fill:#cbd6ff;fill-opacity:1"
     transform="translate(20,20)" /><polygon
     id="polygon93"
     points="0,31.7 0,60 30.1,29.9 60,0 30.1,0 "
     style="fill:#fff9e8;fill-opacity:1"
     transform="translate(20,20)" /></g></svg>
